X:347
T: Gungun de huanghe xiangdongfang
N: C1848
O: China, Qinghai Xunhua
S: I, 217, 1)]
N: Sala
R: Shange]
M: 2/4
L: 1/16
K: C
GG2AG2ED | GG2Ac2de | egedc2de | d8- | d6e2
g3gc2Ac | dcdcA4z2
A2 | GG2AG2ED | GG2Ac2de | egedc2cA
G2GAc2de | c2dcAGAG | G8- | G8

